X: 78
T: Hook or by Crook
%R: jig
B: Chas & Sam Thompson "Twenty Four Country Dances for the Year 1776", London 1776, p.39 #2
F: http://www.vwml.org/browse/browse-collections-dance-tune-books/browse-thompsons1776#
Z: 2014 John Chambers <jc:trillian.mit.edu> (added dance description)
M: 6/8
L: 1/8
K: C
% - - - - - - - - - - - - - - - - - - - - - - - - - - - - -
c/d/ |\
ecg ecg | ecg ecg | Afe dcB | cGE C2c/d/ |\
ecg gfe | de^f gab | aga de^f | g3-[g2G2] :|
|: g |\
g2e fdd | f2d ecc | agf edc | B2c dBG |\
ecg ecg | ecg ecg | Afe dcB | c3-[c2C2] :|
% - - - - - - - - - - Dance description - - - - - - - - - -
%%begintext align
%% The 1st Man sets to the 2d Wo. & turn .| his
%% Partner do the same with the 2d Man :| cross
%% over 2 Cu. lead up to the top & cast off .||
%% hands 4 round at bottom right & left at top :||
%%endtext

%%sep 1 1 500
%%sep 1 1 500
